X: 11522
M: C
L: 1/8
K: Gm
|:\
|: G |\
g>agd BdTg2 | fa cf TA2F2 |
gdgb dg Bd | Acfc A2FA | Bcdc Bd \
[2 F/E/ | DC/B,/ A,D G,2G,2 |]


